X:28
T:Polska fran Alvdalen
T:"Sag mennis int' du mi"
R:polska
Z:2000 Brian Wilson 
M:3/4
L:1/8
Q:1/4=108
K:Dmi
A \
|: A2 d>^c A>c \
| e2 g>e f>f \
| f2 a>g e>g \
| f2 e4 :|
|: e2 (a>g) e>g \
| f2 f>d e2 \
| e2 (a>g) e>g \
| f2 f>d e>e \
| f2 (a>g) e>g \
| e2 d4 :|
